svg/hand_back_right.svg

<svg xmlns="http://www.w3.org/2000/svg" viewBox="0 0 24 24"><path d="M13 24c-3.26 0-6.19-2-7.4-5l-3.03-7.63a1 1 0 0 1 1.24-1.32l.79.26c.56.19 1.02.61 1.24 1.16L7.25 15H8V3.25a1.25 1.25 0 0 1 2.5 0V12h1V1.25a1.25 1.25 0 0 1 2.5 0V12h1V2.75a1.25 1.25 0 0 1 2.5 0V12h1V5.75a1.25 1.25 0 0 1 2.5 0V16c0 4.42-3.58 8-8 8"/></svg>

<svg xmlns="http://www.w3.org/2000/svg" id="mdi-hand-back-right" viewBox="0 0 24 24"><path d="M13 24C9.74 24 6.81 22 5.6 19L2.57 11.37C2.26 10.58 3 9.79 3.81 10.05L4.6 10.31C5.16 10.5 5.62 10.92 5.84 11.47L7.25 15H8V3.25C8 2.56 8.56 2 9.25 2S10.5 2.56 10.5 3.25V12H11.5V1.25C11.5 .56 12.06 0 12.75 0S14 .56 14 1.25V12H15V2.75C15 2.06 15.56 1.5 16.25 1.5C16.94 1.5 17.5 2.06 17.5 2.75V12H18.5V5.75C18.5 5.06 19.06 4.5 19.75 4.5S21 5.06 21 5.75V16C21 20.42 17.42 24 13 24Z" /></svg>
